packages/core/src/svgs/tokens/mono/ADX.svg

<svg width="24" height="24" viewBox="0 0 24 24" fill="none" xmlns="http://www.w3.org/2000/svg">
<path d="M8.22001 5.8335L12 9.66651L15.6855 5.8335L18 8.1335L14.2285 12L18 15.8336L15.6855 18.1666L12 14.3335L8.22001 18.1666L6 15.9001L9.73704 11.9836L6 8.12501L8.22001 5.825V5.8335ZM8.52 5.52501L11.983 2L15.4455 5.52501L13.6285 7.4085L11.983 5.65L10.3455 7.4085L8.52 5.52501ZM8.52 18.475L10.3455 16.5916L11.983 18.3501L13.6285 16.5916L15.4455 18.475L11.983 22L8.52 18.475Z" fill="white"/>
</svg>

<svg xmlns="http://www.w3.org/2000/svg" width="24" height="24" fill="none" viewBox="0 0 24 24">
    <path fill="#fff" d="M8.22 5.834 12 9.667l3.685-3.833L18 8.134 14.229 12 18 15.834l-2.315 2.333L12 14.333l-3.78 3.834L6 15.9l3.737-3.916L6 8.125l2.22-2.3zm.3-.309L11.983 2l3.462 3.525-1.816 1.883-1.646-1.758-1.638 1.758zm0 12.95 1.826-1.883 1.637 1.758 1.646-1.758 1.816 1.883L11.984 22z"/>
</svg>
